build/img/svg/viber.svg

<svg width="24" height="24" viewBox="0 0 24 24" fill="none" xmlns="http://www.w3.org/2000/svg">
<g clip-path="url(#clip0)">
<path d="M23.1551 13.893C23.8711 7.86602 22.8111 4.06102 20.8991 2.34002L20.9001 2.33902C17.8141 -0.599975 7.39208 -1.03498 3.70008 2.47102C2.04208 4.18602 1.45808 6.70302 1.39408 9.81903C1.33008 12.936 1.25408 18.775 6.69508 20.359H6.70008L6.69508 22.778C6.69508 22.778 6.65808 23.758 7.28408 23.955C8.00008 24.187 8.32408 23.732 10.5511 21.072C14.2751 21.395 17.1351 20.655 17.4601 20.547C18.2121 20.295 22.4671 19.732 23.1551 13.893ZM10.9181 19.37C10.9181 19.37 8.56108 22.309 7.82808 23.072C7.58808 23.32 7.32508 23.297 7.32908 22.805C7.32908 22.482 7.34708 18.789 7.34708 18.789C2.73408 17.467 3.00608 12.495 3.05608 9.89402C3.10608 7.29202 3.58208 5.16102 4.98608 3.72602C8.22508 0.689025 17.3621 1.36802 19.6901 3.55602C22.5361 6.07902 21.5231 13.207 21.5291 13.45C20.9441 18.324 17.4961 18.633 16.8621 18.844C16.5911 18.934 14.0761 19.581 10.9181 19.37Z" fill="#784F99"/>
<path d="M12.2219 4.297C11.8369 4.297 11.8369 4.897 12.2219 4.902C15.2089 4.925 17.6689 7.007 17.6959 10.826C17.6959 11.229 18.2859 11.224 18.2809 10.821H18.2799C18.2479 6.706 15.5619 4.32 12.2219 4.297Z" fill="#784F99"/>
<path d="M16.151 10.1929C16.142 10.5909 16.731 10.6099 16.736 10.2069C16.785 7.93791 15.3859 6.06891 12.7569 5.87191C12.3719 5.84391 12.3319 6.44891 12.7159 6.47691C14.9959 6.64991 16.197 8.20591 16.151 10.1929Z" fill="#784F99"/>
<path d="M15.5217 12.7741C15.0277 12.4881 14.5247 12.6661 14.3167 12.9471L13.8817 13.5101C13.6607 13.7961 13.2477 13.7581 13.2477 13.7581C10.2337 12.9611 9.4277 9.8071 9.4277 9.8071C9.4277 9.8071 9.3907 9.3801 9.6667 9.1511L10.2107 8.7011C10.4827 8.4851 10.6547 7.9651 10.3777 7.4541C9.6377 6.1171 9.1407 5.6561 8.8877 5.3021C8.6217 4.9691 8.2217 4.8941 7.8057 5.1191H7.7967C6.9317 5.6251 5.9847 6.5721 6.2877 7.5471C6.8047 8.5751 7.7547 11.8521 10.7827 14.3281C12.2057 15.4991 14.4577 16.6991 15.4137 16.9761L15.4227 16.9901C16.3647 17.3041 17.2807 16.3201 17.7697 15.4291V15.4221C17.9867 14.9911 17.9147 14.5831 17.5977 14.3161C17.0357 13.7681 16.1877 13.1631 15.5217 12.7741Z" fill="#784F99"/>
<path d="M13.1689 8.10393C14.1299 8.15993 14.5959 8.66193 14.6459 9.69294C14.6639 10.0959 15.2489 10.0679 15.2309 9.66494C15.1669 8.31893 14.4649 7.56893 13.2009 7.49893C12.8159 7.47593 12.7799 8.08093 13.1689 8.10393Z" fill="#784F99"/>
</g>
<defs>
<clipPath id="clip0">
<rect width="24" height="24" fill="white"/>
</clipPath>
</defs>
</svg>

<?xml version="1.0" encoding="utf-8"?>
<!-- Generator: Adobe Illustrator 24.1.1, SVG Export Plug-In . SVG Version: 6.00 Build 0)  -->
<svg version="1.1" id="Слой_1" xmlns="http://www.w3.org/2000/svg" xmlns:xlink="http://www.w3.org/1999/xlink" x="0px" y="0px"
	 viewBox="0 0 24 24" style="enable-background:new 0 0 24 24;" xml:space="preserve">
<style type="text/css">
	.st0{fill:#FFFFFF;}
	.st1{clip-path:url(#SVGID_2_);}
	.st2{fill:#784F99;}
</style>
<path class="st0" d="M23.1,13.9c0.7-6-0.3-9.8-2.3-11.6l0,0C17.8-0.6,7.4-1,3.7,2.5C2,4.2,1.4,6.7,1.4,9.8c-0.1,3.1-0.1,9,5.3,10.5
	h0l0,2.4c0,0,0,1,0.6,1.2c0.7,0.2,1-0.2,3.3-2.9c3.7,0.3,6.6-0.4,6.9-0.5C18.2,20.3,22.5,19.7,23.1,13.9z"/>
<g>
	<defs>
		<rect id="SVGID_1_" width="24" height="24"/>
	</defs>
	<clipPath id="SVGID_2_">
		<use xlink:href="#SVGID_1_"  style="overflow:visible;"/>
	</clipPath>
	<g class="st1">
		<path class="st2" d="M23.2,13.9c0.7-6-0.3-9.8-2.3-11.6l0,0C17.8-0.6,7.4-1,3.7,2.5C2,4.2,1.5,6.7,1.4,9.8
			c-0.1,3.1-0.1,9,5.3,10.5h0l0,2.4c0,0,0,1,0.6,1.2c0.7,0.2,1-0.2,3.3-2.9c3.7,0.3,6.6-0.4,6.9-0.5C18.2,20.3,22.5,19.7,23.2,13.9z
			 M10.9,19.4c0,0-2.4,2.9-3.1,3.7c-0.2,0.2-0.5,0.2-0.5-0.3c0-0.3,0-4,0-4C2.7,17.5,3,12.5,3.1,9.9c0-2.6,0.5-4.7,1.9-6.2
			c3.2-3,12.4-2.4,14.7-0.2c2.8,2.5,1.8,9.7,1.8,9.9c-0.6,4.9-4,5.2-4.7,5.4C16.6,18.9,14.1,19.6,10.9,19.4z"/>
		<path class="st2" d="M12.2,4.3c-0.4,0-0.4,0.6,0,0.6c3,0,5.4,2.1,5.5,5.9c0,0.4,0.6,0.4,0.6,0h0C18.2,6.7,15.6,4.3,12.2,4.3z"/>
		<path class="st2" d="M16.2,10.2c0,0.4,0.6,0.4,0.6,0c0-2.3-1.4-4.1-4-4.3c-0.4,0-0.4,0.6,0,0.6C15,6.6,16.2,8.2,16.2,10.2z"/>
		<path class="st2" d="M15.5,12.8c-0.5-0.3-1-0.1-1.2,0.2l-0.4,0.6c-0.2,0.3-0.6,0.2-0.6,0.2c-3-0.8-3.8-4-3.8-4s0-0.4,0.2-0.7
			l0.5-0.4c0.3-0.2,0.4-0.7,0.2-1.2C9.6,6.1,9.1,5.7,8.9,5.3C8.6,5,8.2,4.9,7.8,5.1h0C6.9,5.6,6,6.6,6.3,7.5c0.5,1,1.5,4.3,4.5,6.8
			c1.4,1.2,3.7,2.4,4.6,2.6l0,0c0.9,0.3,1.9-0.7,2.3-1.6v0c0.2-0.4,0.1-0.8-0.2-1.1C17,13.8,16.2,13.2,15.5,12.8z"/>
		<path class="st2" d="M13.2,8.1c1,0.1,1.4,0.6,1.5,1.6c0,0.4,0.6,0.4,0.6,0c-0.1-1.3-0.8-2.1-2-2.2C12.8,7.5,12.8,8.1,13.2,8.1z"/>
	</g>
</g>
</svg>
